Dominus_Dark_Funeral/22/apps/vidcutter.svg

<svg xmlns="http://www.w3.org/2000/svg" width="24" height="24"><path d="M23.6 10.94l-.48-.92-1.18.63-.98-1.83 1.17-.63-1.46-2.73-1.17.63-.98-1.82 1.17-.63-.38-.72L.39 13.06l.39.72 1.31-.7.98 1.83-1.31.7 1.47 2.74 1.3-.7.99 1.81-1.32.71.5.91zm-6.91-5.7l.98 1.82-1.83.98-.98-1.82zM13.04 7.2l.98 1.82-1.83.98-.98-1.82zM9.39 9.16l.97 1.82-1.82.98-.98-1.83zm9.74.64l.98 1.83-1.83.98-.97-1.83zM5.73 11.1l.98 1.83-1.82.98-.98-1.83zm9.75.65l.98 1.83-1.83.97-.97-1.82zm-3.64 1.96l.98 1.83-1.82.98-.98-1.82zm-3.65 1.96l.98 1.83-1.82.98-.98-1.83z" fill="#e6e6e6" stroke-width=".64"/></svg>

<?xml version="1.0" encoding="UTF-8" standalone="no"?>
<svg
   xmlns:dc="http://purl.org/dc/elements/1.1/"
   xmlns:cc="http://creativecommons.org/ns#"
   xmlns:rdf="http://www.w3.org/1999/02/22-rdf-syntax-ns#"
   xmlns:svg="http://www.w3.org/2000/svg"
   xmlns="http://www.w3.org/2000/svg"
   xmlns:sodipodi="http://sodipodi.sourceforge.net/DTD/sodipodi-0.dtd"
   xmlns:inkscape="http://www.inkscape.org/namespaces/inkscape"
   width="24"
   height="24"
   version="1.1"
   id="svg4"
   sodipodi:docname="vidcutter.svg"
   inkscape:version="0.92.4 (5da689c313, 2019-01-14)">
  <metadata
     id="metadata10">
    <rdf:RDF>
      <cc:Work
         rdf:about="">
        <dc:format>image/svg+xml</dc:format>
        <dc:type
           rdf:resource="http://purl.org/dc/dcmitype/StillImage" />
        <dc:title></dc:title>
      </cc:Work>
    </rdf:RDF>
  </metadata>
  <defs
     id="defs8" />
  <sodipodi:namedview
     pagecolor="#ffffff"
     bordercolor="#666666"
     borderopacity="1"
     objecttolerance="10"
     gridtolerance="10"
     guidetolerance="10"
     inkscape:pageopacity="0"
     inkscape:pageshadow="2"
     inkscape:window-width="1138"
     inkscape:window-height="480"
     id="namedview6"
     showgrid="false"
     inkscape:zoom="9.8333333"
     inkscape:cx="1.0677966"
     inkscape:cy="12"
     inkscape:window-x="0"
     inkscape:window-y="25"
     inkscape:window-maximized="0"
     inkscape:current-layer="svg4" />
  <path
     d="M 23.6,10.94 23.12,10.02 21.94,10.65 20.96,8.82 22.13,8.19 20.67,5.46 19.5,6.09 18.52,4.27 19.69,3.64 19.31,2.92 0.39,13.06 l 0.39,0.72 1.31,-0.7 0.98,1.83 -1.31,0.7 1.47,2.74 1.3,-0.7 0.99,1.81 -1.32,0.71 0.5,0.91 z M 16.69,5.24 17.67,7.06 15.84,8.04 14.86,6.22 Z M 13.04,7.2 14.02,9.02 12.19,10 11.21,8.18 Z m -3.65,1.96 0.97,1.82 -1.82,0.98 -0.98,-1.83 z m 9.74,0.64 0.98,1.83 -1.83,0.98 -0.97,-1.83 z m -13.4,1.3 0.98,1.83 -1.82,0.98 -0.98,-1.83 z m 9.75,0.65 0.98,1.83 -1.83,0.97 -0.97,-1.82 z m -3.64,1.96 0.98,1.83 L 11,16.52 10.02,14.7 Z M 8.19,15.67 9.17,17.5 7.35,18.48 6.37,16.65 Z"
     id="path2"
     inkscape:connector-curvature="0"
     style="fill:#e6e6e6;stroke-width:0.63999999" />
</svg>
